X:1
T:Title
%%score 1 ( 2 3 4 ) { ( 5 6 9 ) | ( 7 8 10 ) }
L:1/8
Q:1/4=120
M:none
K:Eb
V:1 treble nm="Voice"
V:2 treble nm="Voice"
V:3 treble 
V:4 treble 
V:5 treble nm="Piano"
V:6 treble 
V:9 treble 
V:7 treble 
V:8 treble 
V:10 treble 
V:1
 x20 | x12 | x12 | x12 | x12 | x12 | x12 | x12 | x12 | x17 | x14 | x12 | x16 | x12 | x18 | x12 | %16
 x12 | x15 | x12 | x12 | x15 | x15 | x15 | x12 | x12 | x9 | x12 | x12 | x12 | x12 | x15 | x12 | %32
 x12 | x12 | x12 | x12 | x12 | x12 | x12 | x12 | x12 | x12 | x12 | x14 | x12 | x26 | x18 | x12 | %48
 x12 | x12 | x12 | x14 | x12 | x23 | x15 | x12 | x12 | x15 | x12 | x12 | x12 | x12 | x12 | c12 | %64
 c12 | F3 G3 A3- x3 ABB | B2!ped! F z BB B2 F z BB | x14 | x12 | x12 | x12 | x12 | x12 | x12 | %74
 x24 | x14 | x12 | x12 | x12 | _D3 D3 _E6 | _A3 A3 _d6 | z6 c2- c2 c2 G3 |!mp! c12 | c z z z3 z6 |] %84
V:2
 .[ce]8 x12 | z2 x10 | x12 | z12 | x12 | x12 | z12 | z6 z3 z EE | F2 E- E3 z3 z CE | %9
 E2 x2 z z3 x z2 _G- GF!ped!E x2 | F E2 z3 z2 CE F2 x2 |!ped! C2 z z3 z3 z!ped! EE | %12
!ped! B3 x4 _G2 F E3- EFE | FEF _G2 E- E3 z EE | B3 x4 _G2 F!ped! E3- EFE x2 | %15
 F2!mp! E F_GA- A3- AGF | E2 z z3 z6 | x6 z3 (_D2 x C) x2 | z12 | z6 z2 F- (3FFE x | %20
!ped! E3 z3 z2 x2 C C2 x C | ECC!ped! C2 E- E2 x2 _G- GFE x | x15 | x12 | x12 | x9 | x12 | x12 | %28
 x12 | x12 | G2 C C2 .C A2 x C x2 C2 C | .B2 A!>)!!>(! G3 EEE B,2!mp! (B | [Bc]8) x4 | B3 c8 x | %34
 B12 | B3 z3 EEE B,2 (e | e3-) e2 d- d3 e2 c- | c12 | c3 z3 z6 | z12 | x12 | z6 z2!ped! F- FFE | %42
 E3 z2 x z2!ped! C C2 C | ECC C!ped! E z z3 z .CE x2 | _G3- GFE F2 E z EC | E x25 | %46
 z6 z2 E E2 E x6 | B3 _d3 A2 _G z FE | FEF _G2 E- E3 z2 E | B3 _d3!ped! A3 z FE | %50
 F2 E F_GA- A3 z3 | F8 z3 z EF | [FAce]8 x4 | [ce]8 G2 C CB,C x3 C3 z B,C | E2 C ECF- x3 F3 z3 | %55
 G2 C C2!ped! C A2 C C2 C | (BA) x (A G) x!ped! (AG- x (G3 | G3)) z2 x!>)!!>(! GGG B,2 B- x3 | %58
 B12 | B3 z2 x EEE B,2 (c | B12 | B3) z2 x EEE B,2 e- | e3 e2 d- d3 e2 c | z3 _g2 f- f3 g2 e- | %64
 e3 _g2 f- f3 g2 (e | e12-) x3 |!>(!!>(! e12 | x3!>)!!>)! B2 E z!>)!!>(! BB B2 c-!>)!!>(! c3 x2 | %68
 c6 c3 c2 =B | =B3 c2 =A- A6 | z6 z3 c2 (=B |!>(! =B3) c2 =A- A3 z3!>)! | z3 =A2 =B- B3 A2 c | %73
!>(! z2 x10!>)! |!>(! z2 x22!>)! |!>(! z2 x3 c2 d- d2 x4 | x10!>)! x12 | D2 C-C D2 F2 D-D F2 | %78
 G2 F-F G2 _B6 |!ped! (F2 G-G _A2 _B2 c-c _d2) |!ped! (c2 _d-d _e2 _f2 _g-g _a2) | z15 | %82
 (g3 c3 c'6- |!>(! c') z z z3 z6!>)! |] %84
V:3
 z20 | x12 | x12 | x12 | x12 | x12 | x12 | x12 | x12 | x17 | x14 | x12 | x16 | x12 | x18 | x12 | %16
 x12 | x15 | x12 | x12 | x15 | x15 | x15 | x12 | x12 | x9 | x12 | x12 | x12 | x12 | x15 | x12 | %32
 x12 | x12 | x12 | x12 | x12 | x12 | x12 | x12 | x12 | x12 | x12 | x14 | x12 | x26 | x18 | x12 | %48
 x12 | x12 | x12 | x14 | x12 | x23 | x15 | x12 | x12 | x15 | x12 | x12 | x12 | x12 | x12 | x12 | %64
 x12 | x15 | x12 | x14 | x12 | x6 z2 x4 | x12 | x12 | x12 | z3 !turn!=A2 =B- B3 A2 c | %74
 z3 !^!=A2 =B- B3 A2 c x12 | z3 x4 d- d3 ((c=B=A- | A12)) | x12 | x12 | x12 | x12 | x15 | x12 | %83
 x12 |] %84
V:4
 .F8 x12 | x12 | x12 | x12 | x12 | x12 | x12 | x12 | x12 | x17 | x14 | x12 | x16 | x12 | x18 | %15
 x12 | x12 | x15 | x12 | x12 | x15 | x15 | x15 | x12 | x12 | x9 | x12 | x12 | x12 | x12 | x15 | %31
 x12 | x12 | x12 | x12 | x12 | x12 | x12 | x12 | x12 | x12 | x12 | x12 | x14 | x12 | x26 | x18 | %47
 x12 | x12 | x12 | x12 | x14 | x12 | x23 | x15 | x12 | x12 | x15 | x12 | x12 | x12 | x12 | x12 | %63
 x12 | x12 | x15 | x12 | x14 | x12 | x12 | x12 | x12 | x12 | x12 | x24 | x14 | x12 | x12 | x12 | %79
 x12 | x12 | x15 | x12 | x12 |] %84
V:5
 [FAce]8!p! cbe' ebf- fbe' ebe' | cbe' ebf- fbe' _gbe' | cbe' ebf- fbe' ebe' | %3
 cbe' ebf- fbe' _gbe' | cbe' ebf- fbe' ebe' | cbe' ebf- fbe' _gbe' | cbe' ebf- fbe' ebe' | %7
 cbe' ebf- fbe' _gbe' | cbe' ebf- fbe' ebe' | x2 b2 e'2 ebf- fbe' x b2 e'2 | %10
 cbe' ebf- fbe' x b2 e'2 | cbe' ebf- fbe' _g2 e' | x3 a2 _d'2 _dae- ead' _gad' | %13
 fa_d' ea_d- dad' cad' | x3 a2 _d'2 _dae- ead' x a2 d'2 | fa_d' ea_d- dad' Bad' | %16
 cbe' ebf- fbe' ebe' | cbe' ebf- fbe' x2 (b2 e'2) | c!ped!be' ebf- fbe' ebe' | %19
 cbe'!<(! ebf- fbe'!<)! _gbe' |!mf! cbe' ebf x2 b2 e'2 _gbe' | abe' _gbf x2 b2 e'2!ped! ebe' | %22
!<(! GG,C G,CG, x2 G,2 C2 G,C!<)!G, | z3!f! !arpeggio![cega]6 z3 |!f! Beb ced- deb ceb | %25
 Beb bed- d x2 | Beb ced- deb ceb | Beb ced- deb ceb | Beb ced- deb ceb | Beb ced- deb!ped! ceb | %30
 Beb ced- deb ceb x3 | Beb ced- deb ceb |!>(! cbe' ebf- fbe' _gb!>)!e' |!p! abe' _gbf- fbe' ebe' | %34
 z be'- e'3 e'6 | e'12 | z be'- e'3 e'6 | x12 | a'12!ped! |!pp! B12 | (F6 E6) | %41
 ([CB]3 [_D_d]3 [EA]6) | [E-F]8 x4 | x8 E4 x2 | .[ce]8 x4 | %45
 .[ce]8!p! c'cg c2- c'2 c2 gcc' c2- g2 c2 | c'!p!c!p!g c2- c'2 c2 gcc' c2- g2 c2 | %47
 [EG]4 x2!<(! [EA]4 x2 | [CEB]3 [CEB]3 [CEB]3!ped!!<)! [CEB]3 | %49
 [A,CEB]2 [A,E][A,CEB] z z!f! [Aceg]6 | Beb ced- deb ceb | Beb ced- deb ceb x2 | %52
!>(! Beb!>)!!>(! ced- deb!>)!!>(! ceb | x2!>)!!>(! Beb!>)!!>(! ced- deb!>)!!>(! ceb!>)! x11 | %54
 Beb ced- deb!ped! ceb x3 | B!ped!eb ced- deb ceb |!>(! Beb!>)!!>(! ced- deb!>)!!>(! ceb!>)! | %57
!>(! Beb!>)!!>(! ce!>)!!>(!d x2 e2 b2!>)!!>)!!>(! ceb | [Bdf]2 [Bdf] [Bdfb]3 [Bdf]2 [Bdf] [Bdfb]3 | %59
 [Bcea]2 [Bcea] [ceab]2 [Bcea] [Bcea]2 [Bcea] [Bcea]3 | %60
!<(! [Acea][Acea][Acea] [Acea][Acea][Acea] [Acea][Acea][Acea] [Acea][Acea]!<)![Acea] | %61
 G!ped!cg =Ac=B- Bcg Acg | Gcg =Ac=B- Bcg Acg | Gc!p!g =Ac=B- Bcg Acg | Gcg =Ac=B- Bcg Acg | %65
 Gcg =Ac=B- Bcg Acg x3 | Gcg =Ac=B- Bcg Acg | x c2 g2 =Ac=B- Bcg Acg | (g=ec c=AF CD=E!ped! FGc) | %69
!mp! dc(=A F)D!p!F!p! AFD-D F2 | [DG]2 F-F [DG]2 [_B,F_B]6 | %71
!<(! [_DF_A]2 [_EG]-[EG] [FA]2 [G_B]2 [_Ac]-[Ac] [_B_d]2 | %72
 [c_e]2 [_d_f]-[df] [_e_g]2 [f_a]2 [g_b]-[gb]!<)! [a_c']2 |[K:bass]!ff!!>(!!>(! =C,12!>)!!>)! | %74
[K:treble]!f!!p!!<(! [=eg=b]12!<)! [c'=e']12 |!ff! [=egc'=e'] z z z3 z6 x2 | x12 | x12 | x12 | %79
 x12 | x12 | x15 | x12 | x12 |] %84
V:6
 x8 c3 e2 f- f3 e3 | c3 e2 f f3 _g3 | c3 e2 f f3 e3 | x3 e2 f x6 | x3 e2 f f3 e3 | c3 e2 f f3 _g3 | %6
 c3 e2 f x3 e3 | c3 e2 f- f3 x3 | x3 e2 f f3 x3 | x6 e2 f x8 | c3 e2 f f3 x5 | c3 e2 f f3 _g3 | %12
 x7 _d2 e e3 _g3 | x3 e2 _d x3 c3 | x7 _d2 e e3 x5 | f3 e2 _d d3 B3 | c3 e2 f- f3 e3 | %17
 c3 e2 f2 x8 | c3 e2 f- f3 e3 | c3 e2 f- f3 _g3 | c3 e2 f x6 _g3 | a3 _g2 f x6 e3 | G6 x9 | x12 | %24
 B3 c2 d- d3 x3 | B3 c2 d- d3 | B3 c2 d- d3 c3 | x3 c2 d x3 c3 | B3 c2 d d3 x3 | B3 c2 d d3 x3 | %30
 B3 c2 d- d3 c3 x3 | B3 c2 d- d3 x3 | x12 | x12 | [E-GBc]12 | [EGBc]12 | ([E-GAc]12 | ([E-GAc]12) | %38
 [EGAc]12) | [B,_D]12 | x12 | x12 | x12 | F8- F6 | F8 x4 | F8 x18 | x18 | .C3 C3 .C3 C3 | x12 | %49
 x12 | B3 c2 d x3 c3 | B3 c2 d d3 x5 | B3 c2 d d3 x3 | B3 c2 d d3 x14 | B3 c2 d d3 x6 | %55
 B3 c2 d- d3 x3 | x3 c2 d- d3 c3 | B3 c2 d x6 c3 | x12 | x12 | x12 | G3 =A2 =B B3 A3 | %62
 x3 =A2 =B x6 | G3 =A2 =B B3 A3 | G3 =A2 =B B3 x3 | x3 =A2 =B- B3 x6 | x3 =A2 =B B3 A3 | %67
 x5 =A2 =B B3 x3 | x12 | x6 C6 | x12 | x12 | x12 |[K:bass] x12 |[K:treble] x24 | x14 | x12 | x12 | %78
 x12 | x12 | x12 | x15 | x12 | x12 |] %84
V:7
 .[ce]8 x12 | E6- E3- E2 E | E6- E3- E2 E- | E12 | E6- E3- E2 E | E6- E3- E2 (E | E6) E3- E2 E- | %7
 E6 E3- E2 E | E6- E3- E2 E | E6- x3 E3- E2 (E x2 | E6-) E3- E2 E- x2 | E6 E3- E2 E | _D12 x4 | %13
 A12 | _D12 x6 | A12 |[K:bass] B,12 | B,12 x3 | E12 | E12 | %20
 [E,,B,,]2 [E,,B,,] [E,,B,,]2 [E,,B,,] [E,,B,,]2 x2 [E,,B,,] [E,,B,,]2 x [E,,B,,] | %21
 [E,,B,,]2 [E,,B,,] [E,,B,,]2 [E,,B,,] [E,,B,,]2 x2 [E,,B,,] [E,,B,,]2 [E,,B,,] x | %22
 [A,,,A,,]3 [A,,,A,,]2 E,, [A,,,A,,]3 x3 [A,,,A,,]3 | z12 | %24
 [E,,B,,E,]2 [B,,E,] [E,,B,,E,]2 [B,,E,] [E,,B,,E,]2 [B,,E,] [E,,B,,E,]2 [B,,E,] | %25
 [E,,B,,E,]2 [B,,E,] [E,,B,,E,]2 [B,,E,] [E,,B,,E,]2 x | %26
 [A,,,E,,A,,]2 [E,,A,,] [A,,,E,,A,,]2 [E,,A,,] [A,,,E,,A,,]2 [E,,A,,] [A,,,E,,A,,]2 [E,,A,,] | %27
 [A,,,E,,A,,]2 [E,,A,,] [A,,,E,,A,,]2 [E,,A,,] [A,,,E,,A,,]2 [E,,A,,] [A,,,E,,A,,]2 [E,,A,,] | %28
 [C,,G,,C,]2 [G,,C,] [C,,G,,C,]2 [G,,C,] [C,,G,,C,]2 [G,,C,] [C,,G,,C,]2 [G,,C,] | %29
 [C,,G,,C,]2 [G,,C,] [C,,G,,C,]2 [G,,C,] [C,,G,,C,]2 [G,,C,] [C,,G,,C,]2 [G,,C,] | %30
 [A,,,E,,A,,]2 [E,,A,,] [A,,,E,,A,,]2 [E,,A,,] [A,,,E,,A,,]2 [E,,A,,] [A,,,E,,A,,]2 A,, x3 | A,12 | %32
 B12 | B12 | z2 x z2[K:bass] !tenuto![E,,,E,,] .[E,,,E,,]2 z z2 x | z12 | %36
 z2 x z2 !tenuto![A,,,A,,] [A,,,A,,]2 z z3 | z12 | z12 | _D,12 | A,12 | z6 A,6 | F,12- | %43
 A,,8 [B,,F,]6 | [A,,C,E,G,]8 x4 | [ce]8 G12 x6 | E6 x3 F6[K:bass] x3 | %47
 [A,,E,G,]3 [A,,E,G,]3 [A,,E,A,]3 [A,,E,A,]3 | %48
 [F,,C,F,]2 [C,F,] [F,,C,F,]2 [C,F,] [F,,C,F,]2 [C,F,] [F,,C,F,]2 [C,F,] | %49
 [F,,,F,,]2 [F,,,F,,][F,,,F,,] z z!>)!!>(! [D,,G,,B,,]6 | %50
!>(! [E,,B,,E,]2 (3:2:2[E,,B,,E,]!>)!!>(! [E,,B,,E,]2 x [E,,B,,E,] [E,,B,,E,]2 [E,,B,,E,]!>)!!>(! [E,,B,,E,]2 [E,,B,,E,]!>)! | %51
!>(! [E,,B,,E,]2 [E,,B,,E,]!>)!!>(! [E,,B,,E,]2 [E,,B,,E,] [E,,B,,E,]2 [E,,B,,E,]!>)!!>(! [E,,B,,E,]2 [E,,B,,E,]!>)! x2 | %52
 .[A,,E,A,]2 .[A,,E,A,] .[A,,E,A,]2 .[A,,E,A,] .[A,,E,A,]2 .[A,,E,A,] .[A,,E,A,]2 .[A,,E,A,] | %53
 .[A,,E,A,]2 .[A,,E,A,] .[A,,E,A,]2 .[A,,E,A,] .[A,,E,A,]2 .[A,,E,A,] .[A,,E,A,]2 .[A,,E,A,] x11 | %54
!>(! [C,,G,,C,]2 [C,,G,,C,]!>)!!>(! [C,,G,,C,]2 [C,,G,,C,] [C,,G,,C,]2 [C,,G,,C,]!>)!!>(! [C,,G,,C,]2 [C,,G,,C,] x3 | x8!>)! %55
!>(! [C,,G,,C,]2 [C,,G,,C,]!>)!!>(! [C,,G,,C,]2 [C,,G,,C,] [C,,G,,C,]2 [C,,G,,C,]!>)!!>(! [C,,G,,C,]2 [C,,G,,C,] | x3!>)! %56
 .[A,,E,A,]2 .[A,,E,A,] .[A,,E,A,]2 .[A,,E,A,] .[A,,E,A,]2 .[A,,E,A,] .[A,,E,A,]2 .[A,,E,A,] | %57
 .[A,,E,A,]2 .[A,,E,A,] .[A,,E,A,]2 .[A,,E,A,] .[A,,E,A,]2 x .[A,,E,A,] x2 .[A,,E,A,]2 .[A,,E,A,] | %58
 [B,,,B,,]2 [B,,,B,,]!>)!!>(! [B,,,F,,B,,]2 [B,,,B,,] [B,,,B,,]2 [B,,,B,,]!>)!!>(! [B,,,F,,B,,]2 [B,,,B,,] | %59
 [A,,,A,,]2 [A,,,A,,]!>)!!>(! [A,,,E,,A,,]2 [A,,,A,,] [A,,,A,,]2 [A,,,A,,]!>)!!>(! [A,,,A,,]3 | %60
 [A,,,A,,][A,,,A,,][A,,,A,,] [A,,,A,,][A,,,A,,][A,,,A,,] [A,,,A,,][A,,,A,,][A,,,A,,] [A,,,A,,][A,,,A,,][A,,,A,,] | %61
 [C,,G,,C,][C,,G,,C,][C,,G,,C,] [C,,G,,C,]z[C,,G,,C,] z [C,,G,,C,] z [C,,G,,C,] z z | %62
 [C,,G,,C,][C,,G,,C,][C,,G,,C,] [C,,G,,C,]z[C,,G,,C,] z [C,,G,,C,] z [C,,G,,C,] z z | %63
!>(! [F,,C,F,][F,,C,F,][F,,C,F,] [F,,C,F,]z[F,,C,F,] z [F,,C,F,] z [F,,C,F,] z z!>)! | %64
 [F,,C,F,][F,,C,F,][F,,C,F,] [F,,C,F,]z[F,,C,F,] z [F,,C,F,] z [F,,C,F,] z z | %65
!>(! [C,,G,,C,][C,,G,,C,][C,,G,,C,] [C,,G,,C,]z[C,,G,,C,] z [C,,G,,C,] z [C,,G,,C,] z z!>)! x3 | %66
!>(! [C,,G,,C,][C,,G,,C,][C,,G,,C,] [C,,G,,C,]z[C,,G,,C,] z [C,,G,,C,] z [C,,G,,C,] z z | x3!>)! %67
!>(! [F,,C,F,][F,,C,F,][F,,C,F,] x2 [F,,C,F,]z[F,,C,F,] z [F,,C,F,] z [F,,C,F,]!>)! z z | %68
 [F,,C,F,][F,,C,F,][F,,C,F,] [F,,C,F,][F,,C,F,][F,,C,F,] F,,C,F,, C,F,,C, | D,3 D,3 D,3 D,3 | %70
 [D,,=A,,D,]3 [D,,A,,D,]3 [D,,_B,,D,]3 [D,,B,,D,]3 | %71
 [_A,,,_A,,]3 [A,,,A,,]3 [A,,,A,,]3 [A,,,A,,]3 | [_D,,_D,]3 [D,,D,]3 [D,,D,]3 [D,,D,]3 | =C,12 | %74
 C,,12 C,12 |!>(! [C,,C,] z z z3 z6 x2 | x10!>)! x12 | x12 | x12 | x12 | x12 | x15 | x12 | x12 |] %84
V:8
 .F8 E6- E3- E2 E | x12 | A,12 | A,12 | x12 | x12 | A,12 | A,12 | x12 | x17 | A,12 x2 | A,12 | %12
 _G,12 x4 | _D12 | _G,12 x6 | _D12 |[K:bass] E,12 | E,12 x3 | A,12 | A,12 | x15 | x15 | x15 | x12 | %24
 x12 | x9 | x12 | x12 | x12 | x12 | x15 | E,12 | E12- | E12 | x5[K:bass] x7 | x12 | x12 | x12 | %38
 x12 | _G,,12 | _D,12 | E,12 | B,,12 | x14 | x12 | x8 C12 x6 | x15[K:bass] x3 | x12 | x12 | x12 | %50
 x12 | x14 | x12 | x23 | x15 | x12 | x12 | x15 | x12 | x12 | x12 | x12 | x12 | x12 | x12 | x15 | %66
 x12 | x14 | x12 | D,,6 D,,6 | x12 | x12 | x12 | !>!=C,,12 | x24 | x14 | x12 | x12 | x12 | x12 | %80
 x12 | x15 | x12 | x12 |] %84
V:9
 x20 | x12 | x12 | x12 | x12 | x12 | x12 | x12 | x12 | x17 | x14 | x12 | x16 | x12 | x18 | x12 | %16
 x12 | x6 f3 x6 | x12 | x12 | x15 | x15 | x15 | x12 | x12 | x9 | x12 | x12 | x12 | x12 | x15 | %31
 x12 | x12 | x12 | x12 | x12 | x12 | x12 | x12 | x12 | x12 | x12 | x12 | x14 | x12 | x26 | x18 | %47
 x12 | x12 | x12 | x12 | x14 | x12 | x23 | x15 | x12 | x12 | x15 | x12 | x12 | x12 | x12 | x12 | %63
 x12 | x12 | x15 | x12 | x14 | x12 | x12 | x12 | x12 | x12 |[K:bass] x12 |[K:treble] x24 | x14 | %76
 x12 | x12 | x12 | x12 | x12 | x15 | x12 | x12 |] %84
V:10
 x20 | x12 | x12 | x12 | x12 | x12 | x12 | x12 | x12 | x17 | x14 | x12 | x16 | x12 | x18 | x12 | %16
[K:bass] x12 | x15 | x12 | x12 | x15 | x15 | x15 | x12 | x12 | x9 | x12 | x12 | x12 | x12 | x15 | %31
 A,,12 | x12 | x12 | x5[K:bass] x7 | x12 | x12 | x12 | x12 | x12 | x12 | A,,12 | x12 | x14 | x12 | %45
 x26 | x15[K:bass] x3 | x12 | x12 | x12 | x12 | x14 | x12 | x23 | x15 | x12 | x12 | x15 | x12 | %59
 x12 | x12 | x12 | x12 | x12 | x12 | x15 | x12 | x14 | x12 | x12 | x12 | x12 | x12 | x12 | x24 | %75
 x14 | x12 | x12 | x12 | x12 | x12 | x15 | x12 | x12 |] %84

